X:1
T:Title
%%score { ( 1 3 5 ) | ( 2 4 ) }
L:1/8
M:4/4
K:C
V:1 treble nm="Grand Piano"
V:3 treble 
V:5 treble 
V:2 bass 
V:4 bass 
V:1
 z4 z2[Q:1/4=100] [CE]>[DF] | [EG]2 [Ec]2 [Ge]>[Ed] [Ec]>[GB] | A2 c2 c2 B>c | d6 z2 | e6 z2 | %5
 [EG]2 [Ec]2 [Ge]>[Fd] [Ec]>[GB] | A2 c2 c2 d>c | B6 z2 |[M:7/8] c-c-c- c- c3 |[M:1/4] B>c | %10
[M:4/4] [Bd]6 z2 | [Bd]2 [_B^c]2 z4 | [Ac]6 z2 | [GB]6 z2 | [Bd]6 z2 | [Bd]2 [_B^c]2 z4 | %16
 [DAc]3 [DGB] [DGB]2 .[C^FA]2 |[M:7/8] G-G-G- G- G3 |[M:1/4] [G,CE]>[G,DF] | %19
[M:4/4] [EG]2 [Ec]2 [Ge]>[Ed] [Ec]>[GB] | A2 c2 c2 B>c | d6 z2 | e6 z2 | %23
 [EG]2 [Ec]2 [Ge]>[Fd] [Ec]>[GB] | A2 c2 c2 d>c | B6 z2 |[M:15/8] c6- c z2 z6 |] %27
V:2
 z4 z2 [C,G,]>[C,G,] | [C,C]2 [C,C]2 [C,C]>[C,C] [C,C]>[E,C] | [F,CF]2 [F,A,F]2 [F,A,F]2 D>E | %3
 F6 z2 | G6[K:bass] z2 | [C,C]2 [C,C]2 [C,C]>[C,C] [C,C]>[E,C] | [F,CF]2 [F,A,F]2 [F,A,F]2 F>E | %7
 D6 G>F |[M:7/8] E>[K:bass][C,G,][F,A,]>[F,A,] [C,G,]3 |[M:1/4][K:treble] G>A | %10
[M:4/4] G,2 G,2 z z/ B/[K:bass] [G,D]2 | [G,D]>G, G,>G, D,2[K:treble] ^F>G | %12
 D,2 D,2 z z/ A/ [D,D]2 | [G,D]2 G,2 G,2[K:treble] G>A | G,2 G,2 z z/ B/[K:bass] [G,D]2 | %15
 [G,D]>G, G,>G, D,2[K:treble] ^F>G | D,3 D, D,2 z D |[M:7/8] G,,2 G,,2 G,,3 |[M:1/4] C,>C, | %19
[M:4/4] [C,C]2 [C,C]2 [C,C]>[C,C] [C,C]>[E,C] | [F,CF]2 [F,A,F]2 [F,A,F]2 D>E | F6 z2 | %22
 G6[K:bass] z2 | [C,C]2 [C,C]2 [C,C]>[C,C] [C,C]>[E,C] | [F,CF]2 [F,A,F]2 [F,A,F]2 F>E | D6 G>F | %26
[M:15/8] E>[K:bass][C,G,][F,A,]-[F,A,]/[F,A,]/ [C,G,]2- [C,G,] z2 z6 |] %27
V:3
 x8 | x8 | x8 | z2 B,>B, B,2 c>d | z2 C>C C2 E>[DF] | x8 | x8 | z2 G,>G, G,2 e>d | %8
[M:7/8] z z/ E<FF/ E3 |[M:1/4] x2 |[M:4/4] D2 D2 z z/ d/ [ce]>[Bd] | z z/ D/ E>E [DA=c]2 A>=B | %12
 D2 D2 z z/ c/ [Bd]>[Ac] | z2 D2 D2 B>c | D2 D2 z z/ d/ [ce]>d | z z/ D/ E>E [DA=c]2 A>=B | x8 | %17
[M:7/8] [G,B,D]2 [G,CE]2 [G,DF]3 |[M:1/4] x2 |[M:4/4] x8 | x8 | z2 B,>B, B,2 c>d | %22
 z2 C>C C2 E>[DF] | x8 | x8 | z2 G,>G, G,2 e>d |[M:15/8] z z/ E/F-F/F/ E2- E z2 z6 |] %27
V:4
 x8 | x8 | x8 | z2 G,>G, G,2 E>F | z2[K:bass] C,>C, C,2 [C,G,C]>[C,G,] | x8 | x8 | x8 | %8
[M:7/8] x3/2[K:bass] x11/2 |[M:1/4][K:treble] x2 |[M:4/4] z4 G,2[K:bass] z2 | x6[K:treble] x2 | %12
 z4 D,2 z2 | x6[K:treble] x2 | z4 G,2[K:bass] z2 | x6[K:treble] x2 | z4 z2 D,2 |[M:7/8] x7 | %18
[M:1/4] x2 |[M:4/4] x8 | x8 | z2 G,>G, G,2 E>F | z2[K:bass] C,>C, C,2 [C,G,C]>[C,G,] | x8 | x8 | %25
 x8 |[M:15/8] x3/2[K:bass] x27/2 |] %27
V:5
 x8 | x8 | x8 | x8 | x8 | x8 | x8 | x8 |[M:7/8] x7 |[M:1/4] x2 |[M:4/4] z4 D2 z2 | x8 | z4 D2 z2 | %13
 x8 | z4 D2 z2 | x8 | x8 |[M:7/8] x7 |[M:1/4] x2 |[M:4/4] x8 | x8 | x8 | x8 | x8 | x8 | x8 | %26
[M:15/8] x15 |] %27

